X:3427
T:Corn Rigs
M:C
L:1/8
K:A
E2|A3 B c2BA|G3 A B2E2|A3 B cdBc|A2 e4
E2|A2e2 fedc|dcBA GABG|FGAF BAGF|E2 A>B A2||
E2|A2e2 cde2|G3 A B2E2|A2ed cdBc|AB cd  e2
A2|A2e2 fedc|dcBA GABG|FGAF BAGF|E2 A>B A2|]


